pix_core/i/permissionlock.svg

<!DOCTYPE svg PUBLIC "-//W3C//DTD SVG 1.1//EN" "http://www.w3.org/Graphics/SVG/1.1/DTD/svg11.dtd" [
	<!ENTITY ns_flows "http://ns.adobe.com/Flows/1.0/">
]><svg xmlns="http://www.w3.org/2000/svg" width="16" height="16" viewBox="0 0 16 16" preserveAspectRatio="xMinYMid meet" overflow="visible"><path d="M2.4 9S1 7.2 1 5.2C1 2.3 2.8 0 5 0s4 2.3 4 5.2C9 7.2 7.6 9 7.6 9c-.3.3-.2.7 0 1-.4.1-.7.3-1 .5-.4.4-.6.9-.6 1.5v3c0 .3.1.7.3 1H0v-4.5l2.2-1.2c.5-.3.6-.8.2-1.3zm12.1 1v1h.5c.5 0 1 .5 1 1v3c0 .5-.5 1-1 1H8c-.5 0-1-.5-1-1v-3c0-.5.4-1 1-1h.6v-1c0-1.6 1.3-3 2.9-3 1.7 0 3 1.3 3 3zm-3 2c-.5 0-1 .4-1 1 0 .4.2.7.6.9l-.1.1-.5 1h2l-.5-1v-.1c.3-.2.6-.5.6-.9-.1-.6-.5-1-1.1-1zm0-3c-.5 0-1 .4-1 1v1h1.9v-1c.1-.6-.3-1-.9-1z" fill="#7575E0"/></svg>

<?xml version="1.0" encoding="utf-8"?>
<!-- Generator: Adobe Illustrator 15.1.0, SVG Export Plug-In  -->
<!DOCTYPE svg PUBLIC "-//W3C//DTD SVG 1.1//EN" "http://www.w3.org/Graphics/SVG/1.1/DTD/svg11.dtd" [
	<!ENTITY ns_flows "http://ns.adobe.com/Flows/1.0/">
]>
<svg version="1.1"
	 xmlns="http://www.w3.org/2000/svg" xmlns:xlink="http://www.w3.org/1999/xlink" xmlns:a="http://ns.adobe.com/AdobeSVGViewerExtensions/3.0/"
	 x="0px" y="0px" width="16px" height="16px" viewBox="0 0 16 16" style="overflow:visible;enable-background:new 0 0 16 16;"
	 xml:space="preserve" preserveAspectRatio="xMinYMid meet">
<defs>
</defs>
<path style="fill:#999999;" d="M2.4,9C2.4,9,1,7.2,1,5.2C1,2.3,2.8,0,5,0s4,2.3,4,5.2C9,7.2,7.6,9,7.6,9c-0.3,0.3-0.2,0.7,0,1
	c-0.4,0.1-0.7,0.3-1,0.5C6.2,10.9,6,11.4,6,12v3c0,0.3,0.1,0.7,0.3,1H0v-4.5l2.2-1.2C2.7,10,2.8,9.5,2.4,9z M14.5,10v1H15
	c0.5,0,1,0.5,1,1v3c0,0.5-0.5,1-1,1l-7,0c-0.5,0-1-0.5-1-1v-3c0-0.5,0.4-1,1-1h0.6v-1c0-1.6,1.3-3,2.9-3C13.2,7,14.5,8.3,14.5,10z
	 M11.5,12c-0.5,0-1,0.4-1,1c0,0.4,0.2,0.7,0.6,0.9L11,14l-0.5,1l1,0l1,0L12,14L12,13.9c0.3-0.2,0.6-0.5,0.6-0.9
	C12.5,12.4,12.1,12,11.5,12z M11.5,9c-0.5,0-1,0.4-1,1v1h1.9v-1C12.5,9.4,12.1,9,11.5,9z"/>
</svg>
